modules/themify-icons/icons/layout-column4-alt.svg

<?xml version="1.0" encoding="utf-8"?>
<!-- Generated by IcoMoon.io -->
<!DOCTYPE svg PUBLIC "-//W3C//DTD SVG 1.1//EN" "http://www.w3.org/Graphics/SVG/1.1/DTD/svg11.dtd">
<svg version="1.1" xmlns="http://www.w3.org/2000/svg" xmlns:xlink="http://www.w3.org/1999/xlink" width="17" height="17" viewBox="0 0 17 17">
<g>
</g>
	<path d="M1 0h3v17h-3v-17zM5 17h3v-17h-3v17zM9 17h3v-17h-3v17zM13 0v17h3v-17h-3z" fill="#000000" />
</svg>

<svg xmlns="http://www.w3.org/2000/svg" width="17" height="17" viewBox="0 0 17 17"><path d="M1 0h3v17H1V0zm4 17h3V0H5v17zm4 0h3V0H9v17zm4-17v17h3V0h-3z"/></svg>
